src/static/logos/remergr.svg

<?xml version="1.0" encoding="UTF-8" standalone="no"?>
<svg width="256px" height="165px" viewBox="0 0 256 165" version="1.1" xmlns="http://www.w3.org/2000/svg" xmlns:xlink="http://www.w3.org/1999/xlink" preserveAspectRatio="xMidYMid">
    <g>
        <path d="M254.126298,76.9621939 L205.400359,21.4773712 L165.718544,21.4773712 L206.339631,67.7244066 L185.259272,67.7244066 C151.116255,67.7244066 140.997296,54.8263641 129.280605,39.7399149 C119.016397,26.5223262 106.234553,10.215792 78.3468936,10.215792 L44.4459574,10.215792 C39.9045296,4.27998109 32.8454657,0 24.8083972,0 C11.1066478,0 0,10.8839338 0,24.5856832 C0,38.2874326 11.1066478,49.5780615 24.8083972,49.5780615 C32.8454657,49.5780615 39.9045296,45.9178061 44.4362742,39.9626288 L78.3372104,39.9626288 C91.0028558,39.9626288 95.8444634,45.2012482 105.576095,57.7216454 C111.70557,65.6037825 118.938931,74.6866383 129.919697,82.278279 C118.938931,89.8699196 111.70557,99.1948558 105.576095,107.076993 C95.8444634,119.59739 91.012539,125.233021 78.3372104,125.233021 L44.4362742,125.233021 C39.9045296,119.287527 32.8357825,115.268993 24.8083972,115.268993 C11.1066478,115.268993 0,126.288492 0,139.990241 C0,153.691991 11.1066478,164.788955 24.8083972,164.788955 C32.8454657,164.788955 39.9142128,160.925352 44.4459574,154.979858 L78.3468936,154.979858 C106.234553,154.979858 119.016397,138.673324 129.280605,125.455735 C141.006979,110.369286 151.125939,97.4712435 185.259272,97.4712435 L205.468142,97.4712435 L165.718544,142.730591 L205.400359,142.730591 L254.126298,87.2457683 C256.624567,84.4085863 256.624567,79.8090591 254.126298,76.9621939 L254.126298,76.9621939 Z M24.8083972,39.1976548 C16.6163972,39.1976548 9.9833948,32.5549693 9.9833948,24.3726525 C9.9833948,16.1806525 16.6260804,9.54765012 24.8083972,9.54765012 C32.9907139,9.54765012 39.6333995,16.1903357 39.6333995,24.3726525 C39.6333995,32.5646525 33.0003972,39.1976548 24.8083972,39.1976548 L24.8083972,39.1976548 Z M24.8083972,154.728095 C16.6163972,154.728095 9.9833948,148.085409 9.9833948,139.903092 C9.9833948,131.711092 16.6260804,125.07809 24.8083972,125.07809 C32.9907139,125.07809 39.6333995,131.720775 39.6333995,139.903092 C39.6333995,148.095092 33.0003972,154.728095 24.8083972,154.728095 L24.8083972,154.728095 Z" fill="#2F569C"></path>
    </g>
</svg>

<svg width="256" height="165" xmlns="http://www.w3.org/2000/svg" preserveAspectRatio="xMidYMid"><path d="M254.126 76.962L205.4 21.477h-39.68l40.62 46.247h-21.08c-34.143 0-44.262-12.898-55.978-27.984-10.265-13.218-23.046-29.524-50.934-29.524H44.446C39.905 4.28 32.846 0 24.808 0 11.107 0 0 10.884 0 24.586c0 13.701 11.107 24.992 24.808 24.992 8.037 0 15.097-3.66 19.628-9.615h33.901c12.666 0 17.507 5.238 27.24 17.759 6.129 7.882 13.362 16.965 24.343 24.556-10.981 7.592-18.214 16.917-24.344 24.799-9.732 12.52-14.563 18.156-27.239 18.156h-33.9c-4.532-5.945-11.601-9.964-19.629-9.964C11.107 115.269 0 126.289 0 139.99c0 13.702 11.107 24.799 24.808 24.799 8.037 0 15.106-3.864 19.638-9.81h33.9c27.889 0 40.67-16.306 50.935-29.523 11.726-15.087 21.845-27.985 55.978-27.985h20.21l-39.75 45.26H205.4l48.726-55.485c2.499-2.837 2.499-7.437 0-10.284zM24.808 39.198c-8.192 0-14.825-6.643-14.825-14.825 0-8.192 6.643-14.825 14.825-14.825 8.183 0 14.825 6.642 14.825 14.825 0 8.192-6.633 14.825-14.825 14.825zm0 115.53c-8.192 0-14.825-6.643-14.825-14.825 0-8.192 6.643-14.825 14.825-14.825 8.183 0 14.825 6.643 14.825 14.825 0 8.192-6.633 14.825-14.825 14.825z" fill="#2F569C"/></svg>
